packages/icons/raw/imported/TypeOpenedHand.svg

<svg width="32" height="32" viewBox="0 0 32 32" fill="none" xmlns="http://www.w3.org/2000/svg">
<g filter="url(#filter0_d_2567:575)">
<path d="M12.1152 16.4052C12.009 16.0121 11.9027 15.5127 11.6796 14.7584C11.499 14.174 11.3183 13.8446 11.1802 13.4515C11.0421 13.0584 10.8615 12.6865 10.649 12.1977C10.4565 11.6987 10.2968 11.1876 10.1708 10.6677C10.1257 10.4521 10.1279 10.2293 10.1775 10.0146C10.227 9.79995 10.3226 9.59863 10.4577 9.42461C10.6445 9.24085 10.8765 9.10969 11.1302 9.04439C11.384 8.97909 11.6504 8.98196 11.9027 9.05273C12.3036 9.22646 12.6413 9.51956 12.8696 9.89211C13.188 10.3921 13.4483 10.9268 13.6452 11.4859C13.9416 12.2515 14.1587 13.0454 14.2933 13.8552L14.389 14.3334C14.389 14.3334 14.3358 13.1434 14.3358 13.1009C14.3358 12.0384 14.2721 11.1671 14.3358 9.97711C14.3358 9.84961 14.4102 9.36086 14.4315 9.22273C14.445 8.99834 14.518 8.78159 14.6432 8.59484C14.7683 8.40808 14.9409 8.25806 15.1433 8.16023C15.3771 8.05462 15.6306 8 15.8871 8C16.1436 8 16.3971 8.05462 16.6308 8.16023C16.8386 8.25324 17.0168 8.4015 17.1461 8.58886C17.2754 8.77622 17.3508 8.99548 17.364 9.22273C17.364 9.33961 17.4596 10.2852 17.4596 10.4021C17.4596 11.4646 17.4596 12.1446 17.4596 12.7184C17.4596 12.9627 17.4596 14.4396 17.4596 14.2696C17.4936 12.8677 17.6179 11.4694 17.8315 10.0834C17.8943 9.86903 18.0015 9.67031 18.1461 9.50008C18.2907 9.32986 18.4695 9.19192 18.6708 9.09523C18.9191 9.0157 19.1842 9.00431 19.4384 9.06225C19.6926 9.12019 19.9265 9.24533 20.1158 9.42461C20.4198 9.76207 20.5997 10.1931 20.6258 10.6465C20.6258 11.0715 20.6258 11.6027 20.6258 11.964C20.6258 12.8884 20.6258 13.3771 20.6258 14.2271C20.6258 14.2271 20.6258 14.5352 20.6258 14.4184C20.7321 14.1209 20.8277 13.8446 20.9127 13.6215C20.9977 13.3984 21.1677 12.9734 21.2952 12.7077C21.4238 12.4572 21.5693 12.2158 21.7308 11.9852C21.898 11.7131 22.1473 11.501 22.4427 11.3796C22.5751 11.3289 22.7163 11.3053 22.858 11.31C22.9997 11.3148 23.139 11.3478 23.2677 11.4072C23.3964 11.4666 23.512 11.5512 23.6075 11.6559C23.703 11.7607 23.7766 11.8835 23.824 12.0171C23.8868 12.4042 23.8868 12.7988 23.824 13.1859C23.7471 13.7801 23.6191 14.3667 23.4415 14.939C23.314 15.4171 23.1546 16.2459 23.0802 16.639C23.0058 17.0321 22.8358 18.1052 22.6977 18.5727C22.5166 19.0979 22.2626 19.595 21.9433 20.0496C21.4268 20.6268 21.0005 21.2787 20.679 21.9834C20.5954 22.331 20.5596 22.6885 20.5727 23.0459C20.5731 23.3758 20.616 23.7043 20.7002 24.0234C20.2659 24.0712 19.8277 24.0712 19.3933 24.0234C18.979 23.9596 18.4583 23.1309 18.3308 22.8759C18.2985 22.8058 18.2468 22.7466 18.1819 22.705C18.1169 22.6634 18.0414 22.6414 17.9643 22.6414C17.8872 22.6414 17.8117 22.6634 17.7467 22.705C17.6817 22.7466 17.63 22.8058 17.5977 22.8759C17.364 23.2796 16.854 24.0127 16.4821 24.0552C15.7808 24.1402 14.304 24.0552 13.1458 24.0552C13.1458 24.0552 13.3477 22.9927 12.9121 22.6102C12.4765 22.2277 12.0302 21.7815 11.6902 21.484L10.8083 20.5065C10.5108 20.124 10.139 19.3484 9.49084 18.3815C9.11896 17.8396 8.42834 17.2234 8.12021 16.7027C7.872 16.2758 7.7996 15.769 7.91834 15.2896C8.00781 14.9816 8.20834 14.7176 8.48113 14.5488C8.75392 14.3801 9.07961 14.3184 9.39521 14.3759C9.88396 14.4107 10.3456 14.6134 10.7021 14.9496C10.9883 15.1899 11.2548 15.4529 11.499 15.7359C11.6796 15.9484 11.7221 16.0334 11.9027 16.2777C12.0833 16.5221 12.2215 16.7665 12.1365 16.4052" fill="white"/>
<path d="M12.2141 16.5234C12.1078 16.1303 12.0016 15.6309 11.7785 14.8765C11.5978 14.2921 11.4172 13.9628 11.2791 13.5696C11.141 13.1765 10.9603 12.8046 10.7478 12.3159C10.5553 11.8168 10.3956 11.3058 10.2697 10.7859C10.2246 10.5703 10.2268 10.3474 10.2764 10.1328C10.3259 9.91811 10.4215 9.71679 10.5566 9.54277C10.7434 9.35902 10.9754 9.22785 11.2291 9.16255C11.4828 9.09725 11.7493 9.10013 12.0016 9.1709C12.4025 9.34463 12.7401 9.63773 12.9685 10.0103C13.2869 10.5102 13.5471 11.045 13.7441 11.604C14.0404 12.3696 14.2576 13.1636 14.3922 13.9734L14.4878 14.4515C14.4878 14.4515 14.4347 13.2615 14.4347 13.219C14.4347 12.1565 14.371 11.2853 14.4347 10.0953C14.4347 9.96777 14.5091 9.47902 14.5303 9.3409C14.5438 9.1165 14.6169 8.89976 14.742 8.713C14.8672 8.52624 15.0398 8.37622 15.2422 8.2784C15.4759 8.17279 15.7295 8.11816 15.986 8.11816C16.2424 8.11816 16.496 8.17279 16.7297 8.2784C16.9375 8.3714 17.1157 8.51967 17.245 8.70703C17.3743 8.89439 17.4496 9.11365 17.4628 9.3409C17.4628 9.45777 17.5585 10.4034 17.5585 10.5203C17.5585 11.5828 17.5585 12.2628 17.5585 12.8365C17.5585 13.0809 17.5585 14.5578 17.5585 14.3878C17.5925 12.9858 17.7167 11.5875 17.9303 10.2015C17.9932 9.9872 18.1004 9.78848 18.245 9.61825C18.3896 9.44802 18.5684 9.31009 18.7697 9.2134C19.018 9.13386 19.2831 9.12247 19.5373 9.18041C19.7915 9.23835 20.0254 9.3635 20.2147 9.54277C20.5187 9.88024 20.6986 10.3112 20.7247 10.7646C20.7247 11.1896 20.7247 11.7209 20.7247 12.0821C20.7247 13.0065 20.7247 13.4953 20.7247 14.3453C20.7247 14.3453 20.7247 14.6534 20.7247 14.5365C20.831 14.239 20.9266 13.9628 21.0116 13.7396C21.0966 13.5165 21.2666 13.0915 21.3941 12.8259C21.5227 12.5754 21.6682 12.334 21.8297 12.1034C21.9969 11.8313 22.2462 11.6192 22.5416 11.4978C22.674 11.4471 22.8152 11.4234 22.9569 11.4282C23.0986 11.4329 23.2379 11.466 23.3666 11.5254C23.4953 11.5848 23.6108 11.6694 23.7064 11.7741C23.8019 11.8788 23.8755 12.0016 23.9228 12.1353C23.9857 12.5223 23.9857 12.917 23.9228 13.304C23.846 13.8983 23.718 14.4849 23.5403 15.0571C23.4128 15.5353 23.2535 16.364 23.1791 16.7571C23.1047 17.1503 22.9347 18.2234 22.7966 18.6909C22.6154 19.216 22.3615 19.7132 22.0422 20.1678C21.5257 20.7449 21.0994 21.3969 20.7778 22.1015C20.6943 22.4492 20.6585 22.8067 20.6716 23.164C20.672 23.494 20.7148 23.8225 20.7991 24.1415C20.3648 24.1893 19.9265 24.1893 19.4922 24.1415C19.0778 24.0778 18.5572 23.249 18.4297 22.994C18.3974 22.924 18.3457 22.8647 18.2807 22.8232C18.2158 22.7816 18.1403 22.7595 18.0632 22.7595C17.986 22.7595 17.9105 22.7816 17.8456 22.8232C17.7806 22.8647 17.7289 22.924 17.6966 22.994C17.4628 23.3978 16.9528 24.1309 16.581 24.1734C15.8797 24.2584 14.4028 24.1734 13.2447 24.1734C13.2447 24.1734 13.4466 23.1109 13.011 22.7284C12.5753 22.3459 12.1291 21.8996 11.7891 21.6021L10.9072 20.6246C10.6097 20.2421 10.2378 19.4665 9.58972 18.4996C9.21784 17.9578 8.52722 17.3415 8.21909 16.8209C7.97087 16.3939 7.89848 15.8872 8.01722 15.4078C8.10669 15.0997 8.30721 14.8358 8.58001 14.667C8.8528 14.4982 9.17849 14.4366 9.49409 14.494C9.98284 14.5289 10.4445 14.7316 10.801 15.0678C11.0872 15.3081 11.3537 15.571 11.5978 15.854C11.7785 16.0665 11.821 16.1515 12.0016 16.3959C12.1822 16.6403 12.3203 16.8846 12.2353 16.5234" stroke="black" stroke-width="0.75" stroke-linecap="round" stroke-linejoin="round"/>
<path d="M19.5635 20.8359V17.1597" stroke="black" stroke-width="0.75" stroke-linecap="round"/>
<path d="M17.4171 20.8465L17.4065 17.1597" stroke="black" stroke-width="0.75" stroke-linecap="round"/>
<path d="M15.3027 17.1914L15.324 20.8252" stroke="black" stroke-width="0.75" stroke-linecap="round"/>
</g>
<defs>
<filter id="filter0_d_2567:575" x="-2" y="0" width="36" height="36" filterUnits="userSpaceOnUse" color-interpolation-filters="sRGB">
<feFlood flood-opacity="0" result="BackgroundImageFix"/>
<feColorMatrix in="SourceAlpha" type="matrix" values="0 0 0 0 0 0 0 0 0 0 0 0 0 0 0 0 0 0 127 0" result="hardAlpha"/>
<feOffset dy="2"/>
<feGaussianBlur stdDeviation="1"/>
<feColorMatrix type="matrix" values="0 0 0 0 0 0 0 0 0 0 0 0 0 0 0 0 0 0 0.25 0"/>
<feBlend mode="normal" in2="BackgroundImageFix" result="effect1_dropShadow_2567:575"/>
<feBlend mode="normal" in="SourceGraphic" in2="effect1_dropShadow_2567:575" result="shape"/>
</filter>
</defs>
</svg>

<svg width="32" height="32" fill="none" xmlns="http://www.w3.org/2000/svg"><g filter="url(#a)"><path d="M12.115 16.405c-.106-.393-.212-.892-.435-1.647-.181-.584-.362-.913-.5-1.306-.138-.394-.319-.765-.531-1.254a12.3 12.3 0 0 1-.478-1.53 1.52 1.52 0 0 1 .287-1.243 1.488 1.488 0 0 1 1.445-.372c.4.173.738.467.967.84.318.5.578 1.034.775 1.593.297.765.514 1.56.648 2.37l.096.477s-.053-1.19-.053-1.232c0-1.063-.064-1.934 0-3.124 0-.127.074-.616.095-.754a1.264 1.264 0 0 1 .712-1.063 1.807 1.807 0 0 1 1.488 0 1.243 1.243 0 0 1 .733 1.063c0 .117.096 1.062.096 1.18v3.867c.034-1.402.158-2.8.371-4.187a1.593 1.593 0 0 1 .84-.988 1.456 1.456 0 0 1 1.445.33c.304.337.484.768.51 1.221v3.772c.106-.297.202-.573.287-.796.085-.224.255-.649.382-.914.129-.25.274-.492.436-.723.167-.272.416-.484.712-.605a1.063 1.063 0 0 1 1.381.637 3.65 3.65 0 0 1 0 1.169c-.077.594-.205 1.18-.383 1.753a29.338 29.338 0 0 0-.36 1.7c-.075.393-.245 1.466-.383 1.934a5.937 5.937 0 0 1-.755 1.477 7.68 7.68 0 0 0-1.264 1.933c-.084.348-.12.706-.106 1.063 0 .33.043.658.127.977a5.973 5.973 0 0 1-1.307 0c-.414-.063-.935-.892-1.062-1.147a.404.404 0 0 0-.733 0c-.234.404-.744 1.137-1.116 1.18-.701.084-2.178 0-3.336 0 0 0 .202-1.063-.234-1.446-.436-.382-.882-.828-1.222-1.126l-.882-.978c-.297-.382-.669-1.158-1.317-2.125-.372-.541-1.063-1.158-1.37-1.678a1.902 1.902 0 0 1-.203-1.413 1.297 1.297 0 0 1 1.477-.914c.489.035.95.237 1.307.574.286.24.553.503.797.786.18.212.223.297.404.542.18.244.319.489.233.127" fill="#fff"/><path d="M12.214 16.523c-.106-.393-.212-.892-.436-1.646-.18-.585-.36-.914-.499-1.307-.138-.393-.319-.765-.531-1.254-.193-.5-.352-1.01-.478-1.53a1.52 1.52 0 0 1 .287-1.243 1.488 1.488 0 0 1 1.445-.372c.4.174.738.467.966.84.319.5.58 1.034.776 1.593.296.766.514 1.56.648 2.37l.096.477s-.053-1.19-.053-1.232c0-1.063-.064-1.934 0-3.124 0-.127.074-.616.095-.754a1.265 1.265 0 0 1 .712-1.063 1.806 1.806 0 0 1 1.488 0 1.243 1.243 0 0 1 .733 1.063c0 .117.095 1.062.095 1.18v3.867c.035-1.402.159-2.8.372-4.187a1.595 1.595 0 0 1 .84-.988 1.456 1.456 0 0 1 1.445.33c.304.337.484.768.51 1.222v3.771c.106-.297.202-.573.287-.796.085-.223.255-.649.382-.914.129-.25.274-.492.436-.723.167-.272.416-.484.712-.605a1.06 1.06 0 0 1 1.38.637c.064.387.064.782 0 1.169a10.41 10.41 0 0 1-.382 1.753 29.35 29.35 0 0 0-.36 1.7c-.075.393-.245 1.466-.383 1.934a5.942 5.942 0 0 1-.755 1.477 7.683 7.683 0 0 0-1.264 1.934c-.084.347-.12.705-.106 1.062 0 .33.043.659.127.977a5.973 5.973 0 0 1-1.307 0c-.414-.063-.935-.892-1.062-1.147a.403.403 0 0 0-.733 0c-.234.404-.744 1.137-1.116 1.18-.701.084-2.178 0-3.336 0 0 0 .202-1.063-.234-1.446-.436-.382-.882-.828-1.222-1.126l-.882-.977c-.297-.383-.67-1.159-1.317-2.125-.372-.542-1.063-1.159-1.37-1.68a1.902 1.902 0 0 1-.203-1.412 1.296 1.296 0 0 1 1.477-.914c.489.035.95.238 1.307.574.286.24.553.503.797.786.18.213.223.297.404.542.18.244.318.489.233.127" stroke="#000" stroke-width=".75" stroke-linecap="round" stroke-linejoin="round"/><path d="M19.564 20.836V17.16M17.417 20.846l-.01-3.686M15.303 17.191l.021 3.634" stroke="#000" stroke-width=".75" stroke-linecap="round"/></g><defs><filter id="a" x="-2" y="0" width="36" height="36" filterUnits="userSpaceOnUse" color-interpolation-filters="sRGB"><feFlood flood-opacity="0" result="BackgroundImageFix"/><feColorMatrix in="SourceAlpha" values="0 0 0 0 0 0 0 0 0 0 0 0 0 0 0 0 0 0 127 0" result="hardAlpha"/><feOffset dy="2"/><feGaussianBlur stdDeviation="1"/><feColorMatrix values="0 0 0 0 0 0 0 0 0 0 0 0 0 0 0 0 0 0 0.25 0"/><feBlend in2="BackgroundImageFix" result="effect1_dropShadow_2567:575"/><feBlend in="SourceGraphic" in2="effect1_dropShadow_2567:575" result="shape"/></filter></defs></svg>
